X:6221
T:Sporting Pitchfork, The
O:england
R:jig
S:P. Glackin
M:6/8
L:1/8
K:G
AG|~F3 ~E3|~F3 DEF|GFG AGE|cAG FGA|
BdB BAG|ABA ABc|dcA AGF|AGF G2:|
B|d2e fed|fgf def|gfg bag|fdd d2c|
BdB BAG|ABA ABc|dcA AGF|AGF G2:|


